!!!OTL: 517. Waldabenteuer.
!!!ARE: Europa, Mitteleuropa, Deutschland, Franken
!!!SCT: E0517A
!!!TXL: @@DE
!!!YEM: Copyright 1995, estate of Helmut Schaffrath.
**kern	**text
*ICvox	*
*M2/4	*
*k[f#]	*
*G:	*
!LO:TX:a:t=Mäßig.	!
!LO:TX:a:t=Aus Franken vor 1820. Erk II, 2, 39. Kr, II. Nr. 96.	!
{8d	Als
=1	=1
8g	ich
8b	an
8b	ei-
8b	-nem
=2	=2
8b	Som-
8dd	-mer-
4dd}	-tag,
=3	=3
{8.cc	val-
16b	-le-
8cc	-ri
8dd	dum
=4	=4
4b	da!
8r}	.
{8d	im
=5	=5
8g	grü-
8b	-nen
8b	Wald
8b	im
=6	=6
8b	Schat-
8dd	-ten
4dd}	lag,
=7	=7
{8.cc	val-
16b	-le-
8cc	-ri
8dd	dum
=8	=8
4b	da!
8r}	.
{8cc	ſah
=9	=9
8cc	ich
8ee	von
8ee	fern
8ee	ein
=10	=10
8ee	Mäd-
8dd	-chen
8dd}	ſtehn,
{8dd	die
=11	=11
8dd	war
8cc	ganʒ
8cc	un-
8cc	-be-
=12	=12
8cc	-ſchreib-
8b	-lich
4b}	ſchön.
=13	=13
{8.g\L	Valle-
16ccJ	.
4cc	-ri,
=14	=14
8.bL	valle-
16ddJ	.
8dd	-ri,
8r}	.
=15	=15
{8.ccL	valle-
16b	.
8cc	-ri
8ddJ	dum
=16	=16
4b	da-
4dd}	-ri,
=17	=17
{8.aL	Valle-
16ccJ	.
4cc	-ri,
=18	=18
8.bL	valle-
16ddJ	.
4dd}	-ri,
=19	=19
{8.ccL	valle-
16b	.
8.cc	-ri
16aJ	dum
=20	=20
4g	da!
8r}	.
==	==
!!!AGN: Liebes - Lied
!!!ONB: ESAC (Essen Associative Code) Database: ERK1
!!!AMT: simple duple
!!!AIN: vox
!!!EED: Helmut Schaffrath
!!!EEV: 1.0
!!!GTL: Liebeslieder [Neuere (aus dem 18. bis 19. Jahrh.) - Liebeslust]
!!!URL-scan: https://rosdok.uni-rostock.de/mcrviewer/recordIdentifier/rosdok_ppn745177662/iview2/phys_0341.iview2?x=-250.1417780126858&y=2446.8973966005724&scale=0.5392104374602399&rotation=0&layout=singlePageLayout
!!!ENC: Anna Maria Matuszewska
!!!EEV: 2024/10/12
*-	*-
